src/assets/metronic/worbby/global/img/social-fb.svg

<?xml version="1.0" encoding="UTF-8"?>
<svg width="40px" height="40px" viewBox="0 0 40 40" version="1.1" xmlns="http://www.w3.org/2000/svg" xmlns:xlink="http://www.w3.org/1999/xlink">
    <!-- Generator: Sketch 41.2 (35397) - http://www.bohemiancoding.com/sketch -->
    <title>social-fb</title>
    <desc>Created with Sketch.</desc>
    <defs>
        <path d="M0,20 C0,8.954305 8.95187636,0 20,0 L20,0 C31.045695,0 40,8.95187636 40,20 L40,20 C40,31.045695 31.0481236,40 20,40 L20,40 C8.954305,40 0,31.0481236 0,20 L0,20 Z" id="path-1"></path>
        <mask id="mask-2" maskContentUnits="userSpaceOnUse" maskUnits="objectBoundingBox" x="0" y="0" width="40" height="40" fill="white">
            <use xlink:href="#path-1"></use>
        </mask>
    </defs>
    <g id="Desktop" stroke="none" stroke-width="1" fill="none" fill-rule="evenodd">
        <g id="Desktop-Needor-Worbbior-Profile" transform="translate(-915.000000, -1013.000000)">
            <g id="social-fb" transform="translate(915.000000, 1013.000000)">
                <use id="Rectangle-4" stroke="#1E2225" mask="url(#mask-2)" stroke-width="2" xlink:href="#path-1"></use>
                <path d="M21.4065216,29 L17.8014396,29 L17.8014396,20.498927 L16,20.498927 L16,17.5697425 L17.8014396,17.5697425 L17.8014396,15.8111588 C17.8014396,13.4216738 18.8180881,12 21.7083219,12 L24.1139129,12 L24.1139129,14.9302575 L22.6104185,14.9302575 C21.4852761,14.9302575 21.4109274,15.3395923 21.4109274,16.1035408 L21.4059709,17.5697425 L24.1304348,17.5697425 L23.8115618,20.498927 L21.4059709,20.498927 L21.4059709,29 L21.4065216,29 Z" id="Shape" fill="#43619C"></path>
            </g>
        </g>
    </g>
</svg>

<svg xmlns="http://www.w3.org/2000/svg" width="40" height="40" xmlns:xlink="http://www.w3.org/1999/xlink"><defs><path id="a" d="M0 20C0 8.9543 8.952 0 20 0c11.0457 0 20 8.952 20 20 0 11.0457-8.952 20-20 20C8.9543 40 0 31.048 0 20z"/><mask id="b" width="40" height="40" x="0" y="0" fill="#fff"><use xlink:href="#a"/></mask></defs><g fill="none" fill-rule="evenodd"><use stroke="#1E2225" stroke-width="2" mask="url(#b)" xlink:href="#a"/><path fill="#43619C" d="M21.4065 29h-3.605v-8.501H16v-2.9293h1.8014v-1.7585c0-2.3895 1.0167-3.8112 3.907-3.8112h2.4055v2.9303h-1.5036c-1.125 0-1.1995.4093-1.1995 1.1732l-.005 1.4662h2.7244l-.3188 2.9292H21.406V29h.0005z"/></g></svg>
